trunk/public/assets/images/icons/blue/move_right/edit-small.svg

<svg width="16" height="16" xmlns="http://www.w3.org/2000/svg" viewBox="0 0 16 16" shape-rendering="geometricPrecision" fill="#24437c"><defs><mask id="a"><rect fill="#fff" width="100%" height="100%"/><path fill="#000" d="M11.875-1.414l-2.47 2.47 2.035 2.04L9.405 5.13l2.47 2.472 4.51-4.51z"/></mask></defs><path fill="#cb1800" d="M11.875 0l-1.057 1.057 2.035 2.038-2.035 2.037 1.057 1.057 3.095-3.097"/><path d="M6.23 12.232l1.344-.505-.988-.877-.355 1.382zm4.144-6.606V3.124h-9.35V14.93h9.35v-5.4l3.113-3.497-1.938-1.728-1.176 1.32zM9.412 6.71l-2.51 2.818 1.937 1.73.572-.645v3.35h-7.43V4.087h7.43V6.71zm5.13-3.815c-.533-.477-1.348-.43-1.828.1l-.69.774L13.96 5.5l.695-.778h-.002c.47-.536.42-1.353-.11-1.827zm-7.888 4.79h-3.42v.96h3.42v-.96zm-1.39-2.043h-2.03v.962h2.03v-.962z" mask="url(#a)"/></svg>

<?xml version="1.0"?><!DOCTYPE svg PUBLIC "-//W3C//DTD SVG 1.1//EN" "http://www.w3.org/Graphics/SVG/1.1/DTD/svg11.dtd"><svg width="16px" height="16px" xmlns="http://www.w3.org/2000/svg" viewBox="0 0 16 16" shape-rendering="geometricPrecision" fill="#24437c"><defs><mask id="move_right-path"><rect fill="#fff" width="100%" height="100%"/><polygon points="11.875,-1.414 9.405,1.056 11.44,3.095 9.405,5.132 11.875,7.604 16.385,3.093 " fill="#000"/></mask></defs><polygon points="11.875,0 10.818,1.057 12.853,3.095 10.818,5.132 11.875,6.189 14.97,3.093 " fill="#cb1800"/><g mask="url(#move_right-path)"><path d="M6.231,12.232l1.343-0.505L6.586,10.85L6.231,12.232z M10.374,5.626V3.124h-9.35v11.805h9.35V9.53 l3.113-3.497l-1.938-1.728L10.374,5.626z M9.412,6.709l-2.51,2.819l1.937,1.73l0.573-0.645v3.351H1.983V4.086h7.428V6.709z M14.542,2.895c-0.533-0.477-1.348-0.43-1.828,0.1l-0.69,0.774L13.961,5.5l0.694-0.778l-0.002-0.001 C15.123,4.186,15.074,3.369,14.542,2.895z M6.654,7.685H3.233v0.961h3.421V7.685z M5.265,5.642H3.233v0.962h2.032V5.642z"/></g></svg>
